X: 32536
T: Planxty Dermot Grogan
R: jig
M: 6/8
K: Gmajor
|:D GA|"G"B3A AG|"C"E3 D EG|"D"A3 B GA|"Em"BA AG ED|
"C"E3 D DE|"G"DB GB AG|"D"A2 "Em"B2 "C"G2|"D"A3 D EG|
"D"A3 B GA|"G"BA AG BD|"C"ED D/E/G "D"Ad|"Em"B2 AG "C"ED|
"C"E3 D DE|"G"DB GB AG|"D"AB "C"G2 "C"G2|"G"G3:|
|:D EG|"D"A3 B GA|"Em"BA AG A/B/d|"C"ed dB de|"G,"dB GB AG|
"D"A3B GA|"Em"BA AG ED|"C"ED D/E/G DB|"D"A3 D EG|
"D"A3 B GA|"G"BA AG BD|"C"ED D/E/G "D"Ad|"Em"B2 AG ED|
"C"E3 D DE|"G"DB GB AG|"D"AB "C"G2 G2|"G"G3:|

